src/DGRuler/skin/basic/img/DGRuler__removeIcon.svg

<svg xmlns="http://www.w3.org/2000/svg" width="12" height="12"><path fill-rule="evenodd" clip-rule="evenodd" fill="#fff" d="M6 0c-3.313 0-6 2.687-6 6s2.687 6 6 6 6-2.687 6-6-2.687-6-6-6zm3.401 9.398l-.601.202-2.8-2.8-2.801 2.8-.609-.185-.215-.641 2.824-2.774-2.8-2.825.221-.584.555-.216 2.774 2.85 2.825-2.85.641.23.151.591-2.742 2.804 2.776 2.8-.199.598z"/></svg>

<svg xmlns="http://www.w3.org/2000/svg" width="12" height="12">
    <path d="M 6,0 C 2.687,0 0,2.687 0,6 0,9.313 2.687,12 6,12 9.313,12 12,9.313 12,6 12,2.687 9.313,0 6,0 z M 9.401,9.398 8.8,9.6 6,6.8 3.199,9.6 2.59,9.415 2.375,8.774 5.199,6 2.399,3.175 2.62,2.591 3.175,2.375 5.949,5.225 8.774,2.375 9.415,2.605 9.566,3.196 6.824,6 9.6,8.8 9.401,9.398 z" fill="#fff" fill-rule="evenodd"/>
</svg>
